X: 206
T: the Chieftain   #2
R: air, march
%S: s:2 b:16(8+8)
B: O'Neill's 1850 #206
O: F.O'Neill
Z: 1997 by John Chambers <jc@trillian.mit.edu>
N: Compacted via repeats and multiple endings [JC]
N: Compacted by using labels and play order [JC]
P: Play A1A2 BA2
Q: "Moderate"
M: C
L: 1/8
K: G
"^A"[|] (3(DEF) | (G3A) (GFED) | (d3{f}e) (d2Bd) | e2(dB) G2A2 |1 E4- Ez :|2 G4- G Hz |]
"^B"[|  (3(Bcd) | (e3f) (edBA) | (G3B)    (d2gf) | e2(dB) G2A2 |  E4- E "->A2"z |]
